X: 10
T:ROGUES MARCH 5 PARTS (40 BAR)
M:6/8
L:1/8
P:5
N:5TH PART IS ALT B ADDED AS A PAR
Z:DAVID DOLBY 9.0
K:D
F2 F FGA | B2 B B3| A2 A A2 B| A2 G F2 E|F2 F FGA | B2 B B3| ABc dAF| E3
 D3 :||
d3 c3| B3 A3| d3 c3| B3 A2 G| F2 F FGA | B2 B B3| ABc dAF| E3 D3 :||
fed fed| B3 A3| d2 d def| e3 e2 d| fed fed| B3 A3| d2 d def| e3 d3 :||
d2 A d2 A| B2 A FED| d2 A FED| F3 E3| FED FED| B2 A FED| d2 A FED| E3 D3
:||
d2 d =cBA| B2 G A2 A| d2 d =cBA| B3 A2 G|F2 F FGA | B2 B B3| ABc dAF| E3
 D3 :||
